X:343
T:Major Bobby 
C:Joe Buchanan's Scottish Tome - Page 128.1
I:128 1
C:
R:March
Z:Carl Allison
L:1/8
M:6/8
K:HP
cd | e2 e e>ce | a2c e2f | d>BB B2 B | f2e c>Ac|
e2 e e>ce |   a2c e2f | d>BB B>GB | A3 A2:|
a | f2d d>ef | e2c c2 e | d>BB c2 d |  c2 d d>ef |
e2c d>ef | e2 c c2 e | d>BB B>GB | A3 A2 :|

